src/assets/icons/telegram.svg

<svg width="20" height="20" viewBox="0 0 20 20" fill="none" xmlns="http://www.w3.org/2000/svg">
<g clip-path="url(#clip0)">
<path d="M19.8059 0.449983C19.7717 0.402375 19.7341 0.358582 19.6936 0.317536C19.6918 0.315552 19.6903 0.313416 19.6883 0.311585C19.6866 0.309907 19.6846 0.308381 19.6829 0.306702C19.4566 0.0827029 19.1419 -0.0390625 18.7775 -0.0390625C18.5707 -0.0390625 18.3487 7.82311e-08 18.1178 0.0770571L1.1215 5.74235C0.222297 6.04219 0.0584177 6.56557 0.04087 6.85075C0.0231698 7.13609 0.121284 7.67564 0.976388 8.08397L5.24428 10.1222L3.33433 14.8386C3.3296 14.85 3.32533 14.8616 3.32152 14.8732C3.10927 15.51 3.19472 16.0825 3.5562 16.4438C3.78706 16.6747 4.10399 16.7929 4.46883 16.7929C4.67513 16.7929 4.89668 16.7551 5.12663 16.6785C5.13838 16.6745 5.14983 16.6704 5.16127 16.6657L9.87777 14.7557L11.9159 19.0235C12.3055 19.8391 12.8189 19.961 13.0904 19.961C13.3328 19.961 13.9319 19.8554 14.2575 18.8784L19.923 1.88202C20.1096 1.32218 20.0681 0.8136 19.8059 0.449983ZM1.30811 6.92934C1.3545 6.90584 1.41523 6.8799 1.49214 6.85426L17.7295 1.44165L8.56887 10.6024C8.2347 10.3214 7.88528 10.0849 7.55385 9.92663L1.4813 7.02638C1.40821 6.99144 1.3513 6.95833 1.30811 6.92934ZM4.73998 15.5721C4.5378 15.6369 4.4232 15.6258 4.38658 15.6134C4.37422 15.5767 4.36308 15.4622 4.42793 15.26L6.3037 10.6282L7.04879 10.9842C7.75802 11.3228 8.67706 12.242 9.0158 12.9511L9.37179 13.6963L4.73998 15.5721ZM13.1458 18.5079C13.1201 18.5849 13.0942 18.6455 13.0707 18.6919C13.0415 18.6487 13.0083 18.5918 12.9733 18.5184L10.0732 12.446C9.915 12.1146 9.67849 11.7653 9.39742 11.431L18.5584 2.27021L13.1458 18.5079Z" fill="white"/>
</g>
<defs>
<clipPath id="clip0">
<rect width="20" height="20" fill="white"/>
</clipPath>
</defs>
</svg>

<svg xmlns="http://www.w3.org/2000/svg" width="20" height="20" fill="none"><g clip-path="url(#a)"><path fill="#fff" d="M19.806.45a1.112 1.112 0 0 0-.112-.132l-.006-.006-.005-.005c-.226-.224-.541-.346-.905-.346-.207 0-.43.039-.66.116L1.122 5.742c-.9.3-1.064.824-1.081 1.109-.018.285.08.825.935 1.233l4.268 2.038-1.91 4.717a.487.487 0 0 0-.012.034c-.213.637-.127 1.21.234 1.57.231.232.548.35.913.35a2.09 2.09 0 0 0 .692-.127l4.717-1.91 2.038 4.267c.39.816.903.938 1.174.938.243 0 .842-.106 1.168-1.083l5.665-16.996c.187-.56.145-1.068-.117-1.432ZM1.308 6.93c.046-.024.107-.05.184-.076L17.73 1.442l-9.161 9.16a4.935 4.935 0 0 0-1.015-.675l-6.073-2.9a1.379 1.379 0 0 1-.173-.098Zm3.432 8.642c-.202.065-.317.054-.353.041-.013-.036-.024-.15.04-.353l1.877-4.632.745.356c.709.339 1.628 1.258 1.967 1.967l.356.745-4.632 1.876Zm8.406 2.936a1.367 1.367 0 0 1-.075.184c-.03-.043-.063-.1-.098-.174l-2.9-6.072a4.933 4.933 0 0 0-.676-1.015l9.161-9.16-5.412 16.237Z"/></g><defs><clipPath id="a"><path fill="#fff" d="M0 0h20v20H0z"/></clipPath></defs></svg>
